src/static/logos/google-pay.svg

<?xml version="1.0" encoding="UTF-8"?>
<svg width="256px" height="102px" viewBox="0 0 256 102" version="1.1" xmlns="http://www.w3.org/2000/svg" xmlns:xlink="http://www.w3.org/1999/xlink" preserveAspectRatio="xMidYMid">
		<g>
				<path d="M121.003082,49.7959599 L121.003082,79.5772714 L111.555218,79.5772714 L111.555218,6.03063563 L136.612597,6.03063563 C142.653793,5.90444203 148.49512,8.19660839 152.838277,12.3976746 C157.232552,16.3502755 159.70375,22.0094263 159.616093,27.919166 C159.741952,33.8619139 157.266351,39.5632986 152.838277,43.528681 C148.456659,47.706867 143.048099,49.7940039 136.612597,49.7900917 L121.003082,49.7900917 L121.003082,49.7959599 Z M121.003082,15.085328 L121.003082,40.7588723 L136.847327,40.7588723 C140.359579,40.8629809 143.753169,39.4825377 146.195431,36.9562536 C148.622875,34.5962348 149.992413,31.3546293 149.992413,27.969046 C149.992413,24.5834628 148.622875,21.3418573 146.195431,18.9818385 C143.782789,16.4012604 140.378668,14.9802053 136.847327,15.0794597 L121.003082,15.0794597 L121.003082,15.085328 Z M181.387259,27.6140176 C188.370463,27.6140176 193.882695,29.4801175 197.923955,33.2123173 C201.965216,36.9445172 203.98389,42.0616213 203.979978,48.5636298 L203.979978,79.5772714 L194.94289,79.5772714 L194.94289,72.5940673 L194.532113,72.5940673 C190.619954,78.3449413 185.416782,81.2203782 178.922598,81.2203782 C173.379069,81.2203782 168.741204,79.5772714 165.009004,76.2910577 C161.381645,73.2364713 159.324951,68.7091572 159.410705,63.9677564 C159.410705,58.7606726 161.378521,54.6196522 165.314153,51.5446951 C169.249785,48.469738 174.503815,46.9283473 181.076242,46.920523 C186.686278,46.920523 191.306538,47.9474647 194.937022,50.0013483 L194.937022,47.8418364 C194.958686,44.6096833 193.525756,41.5391198 191.034643,39.4795963 C188.536219,37.2254769 185.280163,35.995551 181.9154,36.0349402 C176.637897,36.0349402 172.461667,38.2609587 169.38671,42.7129958 L161.065548,37.4726586 C165.642774,30.9002313 172.416678,27.6140176 181.387259,27.6140176 Z M169.163717,64.1731448 C169.150865,66.6128142 170.318228,68.908191 172.297357,70.3347954 C174.386907,71.9784595 176.980445,72.8491917 179.638523,72.7994557 C183.625377,72.7927931 187.446996,71.2059032 190.265904,68.3865402 C193.395631,65.4406843 194.960495,61.9842917 194.960495,58.0173624 C192.014639,55.6700669 187.906872,54.4964191 182.637193,54.4964191 C178.799365,54.4964191 175.599219,55.4216448 173.036755,57.2720961 C170.448862,59.1499324 169.163717,61.4326773 169.163717,64.1731448 Z M255.855208,29.2571244 L224.307556,101.759214 L214.554544,101.759214 L226.26168,76.3908178 L205.517456,29.2571244 L215.786874,29.2571244 L230.780224,65.4054749 L230.985612,65.4054749 L245.568185,29.2571244 L255.855208,29.2571244 Z" fill="#5F6368" fill-rule="nonzero"></path>
				<g>
						<path d="M82.8243212,43.3761068 C82.8278838,40.496867 82.5844374,37.6226288 82.0966596,34.7850053 L42.2513187,34.7850053 L42.2513187,51.0576313 L65.0728991,51.0576313 C64.129234,56.3094237 61.0808719,60.9476825 56.6343718,63.8973376 L56.6343718,74.4601672 L70.2545538,74.4601672 C78.2294903,67.1072641 82.8243212,56.2334178 82.8243212,43.3761068 Z" fill="#4285F4"></path>
						<path d="M42.2513187,84.6650344 C53.6533065,84.6650344 63.2537451,80.9210981 70.2545538,74.4660355 L56.6343718,63.9032058 C52.8434896,66.4734944 47.961115,67.940554 42.2513187,67.940554 C31.2307664,67.940554 21.8767939,60.5113638 18.5318978,50.5001486 L4.50093909,50.5001486 L4.50093909,61.3857314 C11.6728299,75.6570357 26.2792762,84.6643064 42.2513187,84.6650344 Z" fill="#34A853"></path>
						<path d="M18.5318978,50.5001486 C16.7635713,45.2542037 16.7635713,39.5732276 18.5318978,34.3272827 L18.5318978,23.4416999 L4.50093909,23.4416999 C-1.49774553,35.378448 -1.49774553,49.4489833 4.50093909,61.3857314 L18.5318978,50.5001486 Z" fill="#FBBC04"></path>
						<path d="M42.2513187,16.8868772 C48.276753,16.7884376 54.098922,19.0650279 58.459394,23.2245751 L70.5186246,11.1653445 C62.8718168,3.9830652 52.7414947,0.0398736052 42.2513187,0.162396916 C26.2792762,0.163124858 11.6728299,9.17039558 4.50093909,23.4416999 L18.5318978,34.3272827 C21.8767939,24.3160675 31.2307664,16.8868772 42.2513187,16.8868772 Z" fill="#EA4335"></path>
				</g>
		</g>
</svg>

<svg width="256" height="102" xmlns="http://www.w3.org/2000/svg" preserveAspectRatio="xMidYMid"><path d="M121.003 49.796v29.781h-9.448V6.031h25.058a22.657 22.657 0 0116.225 6.367 20.468 20.468 0 016.778 15.521 20.375 20.375 0 01-6.778 15.61c-4.381 4.178-9.79 6.265-16.225 6.261h-15.61v.006zm0-34.71v25.673h15.844a12.488 12.488 0 009.348-3.803 12.535 12.535 0 000-17.974 12.323 12.323 0 00-9.348-3.903h-15.844v.006zm60.384 12.528c6.983 0 12.496 1.866 16.537 5.598 4.041 3.733 6.06 8.85 6.056 15.352v31.013h-9.037v-6.983h-.41c-3.913 5.75-9.116 8.626-15.61 8.626-5.544 0-10.182-1.643-13.914-4.929a15.739 15.739 0 01-5.598-12.323c0-5.207 1.968-9.348 5.903-12.423 3.936-3.075 9.19-4.617 15.762-4.624 5.61 0 10.23 1.026 13.861 3.08v-2.16a10.756 10.756 0 00-3.902-8.361 13.38 13.38 0 00-9.12-3.445c-5.277 0-9.453 2.226-12.528 6.678l-8.321-5.24c4.577-6.573 11.35-9.859 20.321-9.859zm-12.223 36.56a7.547 7.547 0 003.133 6.16 11.525 11.525 0 007.342 2.465 15.064 15.064 0 0010.627-4.412c3.13-2.946 4.694-6.403 4.694-10.37-2.945-2.347-7.053-3.52-12.323-3.52-3.838 0-7.038.925-9.6 2.775-2.588 1.878-3.873 4.16-3.873 6.901zm86.691-34.917l-31.547 72.502h-9.753l11.707-25.368-20.745-47.134h10.27l14.993 36.148h.206l14.582-36.148h10.287z" fill="#5F6368"/><path d="M82.824 43.376c.004-2.88-.24-5.753-.727-8.591H42.25v16.273h22.822a19.559 19.559 0 01-8.439 12.84V74.46h13.62c7.975-7.353 12.57-18.227 12.57-31.084z" fill="#4285F4"/><path d="M42.251 84.665c11.402 0 21.003-3.744 28.004-10.199l-13.62-10.563c-3.792 2.57-8.674 4.038-14.384 4.038-11.02 0-20.374-7.43-23.72-17.44H4.502v10.885a42.251 42.251 0 0037.75 23.279z" fill="#34A853"/><path d="M18.532 50.5a25.316 25.316 0 010-16.173V23.442H4.5a42.251 42.251 0 000 37.944L18.53 50.5z" fill="#FBBC04"/><path d="M42.251 16.887a22.939 22.939 0 0116.208 6.338l12.06-12.06A40.596 40.596 0 0042.25.162 42.251 42.251 0 004.5 23.442l14.03 10.885c3.346-10.01 12.7-17.44 23.72-17.44z" fill="#EA4335"/></svg>
